/* XPM */
static char *result[] = {
/* columns rows colors chars-per-pixel */
"64 32 13 1 ",
"  c #211516",
". c #0B1325",
"X c #141D31",
"o c #212839",
"O c #501B21",
"+ c #2B3242",
"@ c #5E2D6F",
"# c #574646",
"$ c #8E4147",
"% c #E26168",
"& c #F5B379",
"* c #7A3580",
"= c #FAF6D4",
/* pixels */
"XXXXXXXXXXXXXXXXXXXXXXXXXXXXXXXXXXXXXXXXXXXXXXXXXXXXXXXXXXXXXXXX",
"oooooooooooooooooooXXXoooooooooooooooooooooooooooooXXXoooooooooo",
"++++++++++++++++++ooXooo+oo+o+++++++++++++++++++++ooXooo+oo+o+++",
"ooooooooooooooooo++o.oooooooooooooooooooooooooooo++o.ooooooooooo",
"oooooooooooooooooo+o.ooooooooooooooooooooooooooooo+o.ooooooooooo",
"oooooooooooooooooo+o.ooooooooooooooooooooooooooooo+o.ooooooooooo",
"oooooooooooooooooo+o.ooooooooooooooooooooooooooooo+o.ooooooooooo",
"oooooooooooooooooo+o.ooooooooooooooooooooooooooooo+o.ooooooooooo",
"oooooooooooooooooo+o.ooooooooooooooooooooooooooooo+o.ooooooooooo",
"oooooooooooooooooo+o.ooooooooooooooooooooooooooooo+o.ooooooooooo",
"oooooooooooooooooo+o.ooooooooooooooooooooooooooooo+o.ooooooooooo",
"ooooooooooooooo=oo+o.=oooooooooooooooooooooooooooo+o.ooooooooooo",
"ooooooooooooooo==oo===oooooooooooooooooooooooooooooo.ooooooooooo",
"ooooooooooooooo%====%=oooooooooooooooooooooooooooooo.ooooooooooo",
"ooooooooooooooo========ooooooooooooooooooooooooooooXX.oooooooooo",
"...............&==&&===...........................XXXX..........",
"XXXXXXXXXXXXXXX == ====XXXXXXXXXXXXXXXXXXXXXXXXXXXXXXXXXXXXXXXXX",
"ooooooXXXooooo= == ====**oooooooooooooXXXooooooooooooooooooooooo",
"+++++ooXooo+oo+& &======*====++++++++ooXooo+oo+o++++++++++++++++",
"oooo++o.oooooooo======@*$*ooo==ooooo++o.oooooooooooooooooooooooo",
"ooooo+o.oooooooooo@@@==$*Oooooooooooo+o.oooooooooooooooooooooooo",
"ooooo+o.ooooooooooo**==*OOooooooooooo+o.oooooooooooooooooooooooo",
"ooooo+o.ooooooooooo=*==OOOooooooooooo+o.oooooooooooooooooooooooo",
"ooooo+o.oooooooooooo###OOoooooooooooo+o.oooooooooooooooooooooooo",
"ooooo+o.oooooooooooo===Oooooooooooooo+o.oooooooooooooooooooooooo",
"ooooo+o.ooooooooooooooooooooooooooooo+o.oooooooooooooooooooooooo",
"ooooo+o.ooooooooooooooooooooooooooooo+o.oooooooooooooooooooooooo",
"ooooo+o.ooooooooooooooooooooooooooooo+o.oooooooooooooooooooooooo",
"ooooooo.ooooooooooooooooooooooooooooooo.oooooooooooooooooooooooo",
"ooooooo.ooooooooooooooooooooooooooooooo.oooooooooooooooooooooooo",
"ooooooXX.oooooooooooooooooooooooooooooXX.ooooooooooooooooooooooo",
".....XXXX............................XXXX......................."
};
