/* XPM */
static char *result[] = {
/* columns rows colors chars-per-pixel */
"64 32 13 1 ",
"  c #211516",
". c #0B1325",
"X c #141D31",
"o c #212839",
"O c #501B21",
"+ c #2B3242",
"@ c #5E2D6F",
"# c #574646",
"$ c #8E4147",
"% c #E26168",
"& c #F5B379",
"* c #7A3580",
"= c #FAF6D4",
/* pixels */
"XXXXXXXXXXXXXXXXXXXXXXXXXXXXXXXXXXXXXXXXXXXXXXXXXXXXXXXXXXXXXXXX",
"oooooooooooooooooooXXXoooooooooooooooooooooooooooooXXXoooooooooo",
"++++++++++++++++++ooXooo+=o+o++=++++++++++++++++++ooXooo+oo+o+++",
"ooooooooooooooooo++o.oooo==oo===ooooooooooooooooo++o.ooooooooooo",
"oooooooooooooooooo+o.oooo%====%=oooooooooooooooooo+o.ooooooooooo",
"oooooooooooooooooo+o.oooo========ooooooooooooooooo+o.ooooooooooo",
"oooooooooooooooooo+o.oooo&==&&===ooooooooooooooooo+o.ooooooooooo",
"oooooooooooooooooo+o.ooo= == ====ooooooooooooooooo+o.ooooooooooo",
"oooooooooooooooooo+o.oooo == =====*oo===oooooooooo+o.ooooooooooo",
"oooooooooooooooooo+o.oooo& &=====@$==ooooooooooooo+o.ooooooooooo",
"oooooooooooooooooo+o.ooooo======@$*Ooooooooooooooo+o.ooooooooooo",
"oooooooooooooooooo+o.ooooooo===@*$*OOOoooooooooooo+o.ooooooooooo",
"oooooooooooooooooooo.oooooo#==@**$*OOooooooooooooooo.ooooooooooo",
"oooooooooooooooooooo.ooooo=##ooooooooooooooooooooooo.ooooooooooo",
"oooooooooooooooooooXX.ooo===oooooooooooooooooooooooXX.oooooooooo",
"..................XXXX............................XXXX..........",
"XXXXXXXXXXXXXXXXXXXXXXXXXXXXXXXXXXXXXXXXXXXXXXXXXXXXXXXXXXXXXXXX",
"ooooooXXXoooooooooooooooooooooooooooooXXXooooooooooooooooooooooo",
"+++++ooXooo+oo+o+++++++++++++++++++++ooXooo+oo+o++++++++++++++++",
"oooo++o.oooooooooooooooooooooooooooo++o.oooooooooooooooooooooooo",
"ooooo+o.ooooooooooooooooooooooooooooo+o.oooooooooooooooooooooooo",
"ooooo+o.ooooooooooooooooooooooooooooo+o.oooooooooooooooooooooooo",
"ooooo+o.ooooooooooooooooooooooooooooo+o.oooooooooooooooooooooooo",
"ooooo+o.ooooooooooooooooooooooooooooo+o.oooooooooooooooooooooooo",
"ooooo+o.ooooooooooooooooooooooooooooo+o.oooooooooooooooooooooooo",
"ooooo+o.ooooooooooooooooooooooooooooo+o.oooooooooooooooooooooooo",
"ooooo+o.ooooooooooooooooooooooooooooo+o.oooooooooooooooooooooooo",
"ooooo+o.ooooooooooooooooooooooooooooo+o.oooooooooooooooooooooooo",
"ooooooo.ooooooooooooooooooooooooooooooo.oooooooooooooooooooooooo",
"ooooooo.ooooooooooooooooooooooooooooooo.oooooooooooooooooooooooo",
"ooooooXX.oooooooooooooooooooooooooooooXX.ooooooooooooooooooooooo",
".....XXXX............................XXXX......................."
};
