/* XPM */
static char *result[] = {
/* columns rows colors chars-per-pixel */
"32 64 12 1 ",
"  c #211516",
". c #0B1325",
"X c #141D31",
"o c #212839",
"O c #501B21",
"+ c #2B3242",
"@ c #5E2D6F",
"# c #574646",
"$ c #8E4147",
"% c #F5B379",
"& c #7A3580",
"* c #FAF6D4",
/* pixels */
"XXXXXXXXXXXXXXXXXXXXXXXXXXXXXXXX",
"oooooooooooooooooooXXXoooooooooo",
"++++++++++++++++++ooXooo+oo+o+++",
"ooooooooooooooooo++o.ooooooooooo",
"oooooooooooooooooo+o.ooooooooooo",
"oooooooooooooooooo+o.ooooooooooo",
"oooooooooooooooooo+o.ooooooooooo",
"oooooooooooooooooo+o.ooooooooooo",
"oooooooooooooooooo+o.ooooooooooo",
"oooooooooooooooooo+o.ooooooooooo",
"oooooooooooooooooo+o.ooooooooooo",
"oooooooooooooooooo+o.ooooooooooo",
"oooooooooooooooooooo.ooooooooooo",
"oooooooooooooooooooo.ooooooooooo",
"oooooooooooooooooooXX.oooooooooo",
"..................XXXX..........",
"XXXXXXXXXXXXXXXXXXXXXXXXXXXXXXXX",
"ooooooXXXooooooooooooooooooooooo",
"+++++ooXooo+oo+o++++++++++++++++",
"oooo++o.oooooooooooooooooooooooo",
"ooooo+o.oooooooooooooooooooooooo",
"ooooo+o.oooooooooooooooooooooooo",
"ooooo+o.oooooooooooooooooooooooo",
"ooooo+o.oooooooooooooooooooooooo",
"ooooo+o.oooooooooooooooooooooooo",
"ooooo+o.oooooooooooooooooooooooo",
"ooooo+o.oooooooooooooooooooooooo",
"ooooo+o.oooooooooooooooooooooooo",
"ooooooo.oooooooooooooooooooooooo",
"ooooooo.oooooooooooooooooooooooo",
"ooooooXX.ooooooooooooooooooooooo",
".....XXXX.......................",
"XXXXXXXXXXXXXXXXXXXXXXXXXXXXXXXX",
"oooooooooooooooooooXXXoooooooooo",
"++++++++++++++++++ooXooo+oo+o+++",
"ooooooooooooooooo++o.ooooooooooo",
"oooooooooooo*oooo*+o.ooooooooooo",
"ooooooooooo**ooo**+o.ooooooooooo",
"ooooooooooo***oo***o.ooooooooooo",
"ooooooooooo*********.ooooooooooo",
"ooooooooooo*********.ooooooooooo",
"oooooooooo****%%**%%*ooooooooooo",
"ooooooooooo**** ** *.ooooooooooo",
"oooooooooooo*** ** *.ooooooooooo",
"ooooooooooooo***% %o.ooooooooooo",
"ooooooooooo*&@@@@@@*.ooooooooooo",
"ooooooooooo**&&&&&@*X.oooooooooo",
"...........**&&&&&$X#X..........",
"XXXXXXXXXX##X$$$$$@X*XXXXXXXXXXX",
"ooooooXXXo**o@@@@@Oooooooooooooo",
"+++++ooXooo+oOOOOOO+++++++++++++",
"oooo++o.oooooOOOOOOooooooooooooo",
"ooooo+o.ooooooOooOOooooooooooooo",
"ooooo+o.ooooooooooOooooooooooooo",
"ooooo+o.oooooooooooooooooooooooo",
"ooooo+o.oooooooooooooooooooooooo",
"ooooo+o.oooooooooooooooooooooooo",
"ooooo+o.oooooooooooooooooooooooo",
"ooooo+o.oooooooooooooooooooooooo",
"ooooo+o.oooooooooooooooooooooooo",
"ooooooo.oooooooooooooooooooooooo",
"ooooooo.oooooooooooooooooooooooo",
"ooooooXX.ooooooooooooooooooooooo",
".....XXXX......................."
};
