/* XPM */
static char *result[] = {
/* columns rows colors chars-per-pixel */
"32 64 12 1 ",
"  c #211516",
". c #0B1325",
"X c #141D31",
"o c #212839",
"O c #501B21",
"+ c #2B3242",
"@ c #5E2D6F",
"# c #574646",
"$ c #8E4147",
"% c #F5B379",
"& c #7A3580",
"* c #FAF6D4",
/* pixels */
"XXXXXXXXXXXXXXXXXXXXXXXXXXXXXXXX",
"oooooooooooooooooooXXXoooooooooo",
"++++++++++++++++++ooXooo+oo+o+++",
"ooooooooooooooooo++o.ooooooooooo",
"oooooooooooooooooo+o.ooooooooooo",
"oooooooooooooooooo+o.ooooooooooo",
"oooooooooooooooooo+o.ooooooooooo",
"oooooooooooooooooo+o.ooooooooooo",
"oooooooooooooooooo+o.ooooooooooo",
"oooooooooooooooooo+o.ooooooooooo",
"oooooooooooooooooo+o.ooooooooooo",
"oooooooooooooooooo+o.ooooooooooo",
"oooooooooooooooooooo.ooooooooooo",
"oooooooooooooooooooo.ooooooooooo",
"oooooooooooo*oooo*oXX.oooooooooo",
"............**...**XXX..........",
"XXXXXXXXXXX***XX***XXXXXXXXXXXXX",
"ooooooXXXoo*********oooooooooooo",
"+++++ooXooo*********++++++++++++",
"oooo++o.oo****%%**%%*ooooooooooo",
"ooooo+o.ooo**** ** *oooooooooooo",
"ooooo+o.oooo*** ** *oooooooooooo",
"ooooo+o.oo*oo***% %ooooooooooooo",
"ooooo+o.ooo*&@@@@@@*oooooooooooo",
"ooooo+o.ooo**&&&&&@*oooooooooooo",
"ooooo+o.ooo**&&&&&$o#ooooooooooo",
"ooooo+o.oo##o$$$$$@o*ooooooooooo",
"ooooo+o.oo**o@@@@@Oooooooooooooo",
"ooooooo.oooooOOOOOOooooooooooooo",
"ooooooo.oooooOOOOOOooooooooooooo",
"ooooooXX.oooooOooOOooooooooooooo",
".....XXXX.........O.............",
"XXXXXXXXXXXXXXXXXXXXXXXXXXXXXXXX",
"oooooooooooooooooooXXXoooooooooo",
"++++++++++++++++++ooXooo+oo+o+++",
"ooooooooooooooooo++o.ooooooooooo",
"oooooooooooooooooo+o.ooooooooooo",
"oooooooooooooooooo+o.ooooooooooo",
"oooooooooooooooooo+o.ooooooooooo",
"oooooooooooooooooo+o.ooooooooooo",
"oooooooooooooooooo+o.ooooooooooo",
"oooooooooooooooooo+o.ooooooooooo",
"oooooooooooooooooo+o.ooooooooooo",
"oooooooooooooooooo+o.ooooooooooo",
"oooooooooooooooooooo.ooooooooooo",
"oooooooooooooooooooo.ooooooooooo",
"oooooooooooooooooooXX.oooooooooo",
"..................XXXX..........",
"XXXXXXXXXXXXXXXXXXXXXXXXXXXXXXXX",
"ooooooXXXooooooooooooooooooooooo",
"+++++ooXooo+oo+o++++++++++++++++",
"oooo++o.oooooooooooooooooooooooo",
"ooooo+o.oooooooooooooooooooooooo",
"ooooo+o.oooooooooooooooooooooooo",
"ooooo+o.oooooooooooooooooooooooo",
"ooooo+o.oooooooooooooooooooooooo",
"ooooo+o.oooooooooooooooooooooooo",
"ooooo+o.oooooooooooooooooooooooo",
"ooooo+o.oooooooooooooooooooooooo",
"ooooo+o.oooooooooooooooooooooooo",
"ooooooo.oooooooooooooooooooooooo",
"ooooooo.oooooooooooooooooooooooo",
"ooooooXX.ooooooooooooooooooooooo",
".....XXXX......................."
};
