/* XPM */
static char *result[] = {
/* columns rows colors chars-per-pixel */
"64 32 13 1 ",
"  c #211516",
". c #0B1325",
"X c #141D31",
"o c #212839",
"O c #501B21",
"+ c #2B3242",
"@ c #5E2D6F",
"# c #574646",
"$ c #8E4147",
"% c #E26168",
"& c #F5B379",
"* c #7A3580",
"= c #FAF6D4",
/* pixels */
"XXXXXXXXXXXXXXXXXXXXXXXXXXXXXXXXXXXXXXXXXXXXXXXXXXXXXXXXXXXXXXXX",
"oooooooooooooooooooXXXoooooooooooooooooooooooooooooXXXoooooooooo",
"++++++++++++++++++ooXooo+oo+o+++++++++++++++++++++ooXooo+oo+o+++",
"ooooooooooooooooo++o.oooooooooooooooooooooooooooo++o.ooooooooooo",
"oooooooooooooooooo+o.ooooooooooooooooooooooooooooo+o.ooooooooooo",
"oooooooooooooooooo+o.ooo=ooooo=ooooooooooooooooooo+o.ooooooooooo",
"oooooooooooooooooo+o.ooo===oo==ooooooooooooooooooo+o.ooooooooooo",
"oooooooooooooooooo+o.ooo=%====%ooooooooooooooooooo+o.ooooooooooo",
"oooooooooooooooooo+o.oo========ooooooooooooooooooo+o.ooooooooooo",
"oooooooooooooooooo+o.oo===&&==&ooooooooooooooooooo+o.ooooooooooo",
"oooooooooooooooooo+o.oo==== == ooooooooooooooooooo+o.ooooooooooo",
"oooooooooooooooooo+o.o===== == =oooooooooooooooooo+o.ooooooooooo",
"oooooooooooooooooooo.$@=====& &ooooooooooooooooooooo.ooooooooooo",
"oooooooooooooooooo==O*$@======oooooooooooooooooooooo.ooooooooooo",
"ooooooooooooooo===oOO*$*@====ooooooooooooooooooooooXX.oooooooooo",
"..................XOO*$**@@==#=...................XXXX..........",
"XXXXXXXXXXXXXXXXXXXOOOXXXXXX##==XXXXXXXXXXXXXXXXXXXXXXXXXXXXXXXX",
"ooooooXXXoooooooooOOOoooooooooooooooooXXXooooooooooooooooooooooo",
"+++++ooXooo+oo+o+++++++++++++++++++++ooXooo+oo+o++++++++++++++++",
"oooo++o.oooooooooooooooooooooooooooo++o.oooooooooooooooooooooooo",
"ooooo+o.ooooooooooooooooooooooooooooo+o.oooooooooooooooooooooooo",
"ooooo+o.ooooooooooooooooooooooooooooo+o.oooooooooooooooooooooooo",
"ooooo+o.ooooooooooooooooooooooooooooo+o.oooooooooooooooooooooooo",
"ooooo+o.ooooooooooooooooooooooooooooo+o.oooooooooooooooooooooooo",
"ooooo+o.ooooooooooooooooooooooooooooo+o.oooooooooooooooooooooooo",
"ooooo+o.ooooooooooooooooooooooooooooo+o.oooooooooooooooooooooooo",
"ooooo+o.ooooooooooooooooooooooooooooo+o.oooooooooooooooooooooooo",
"ooooo+o.ooooooooooooooooooooooooooooo+o.oooooooooooooooooooooooo",
"ooooooo.ooooooooooooooooooooooooooooooo.oooooooooooooooooooooooo",
"ooooooo.ooooooooooooooooooooooooooooooo.oooooooooooooooooooooooo",
"ooooooXX.oooooooooooooooooooooooooooooXX.ooooooooooooooooooooooo",
".....XXXX............................XXXX......................."
};
