/* XPM */
static char *ca6a56ec48ed4814f612ae955f5379f6J1wm2IW6xu8oxoB7[] = {
/* columns rows colors chars-per-pixel */
"64 64 81 1 ",
"  c #56657E",
". c #59627B",
"X c #5C627A",
"o c #58637E",
"O c #5D637D",
"+ c #58647D",
"@ c #576680",
"# c #5A6682",
"$ c #596784",
"% c #566882",
"& c #576984",
"* c #5A6882",
"= c #5A6984",
"- c #5E6A85",
"; c #5A6C87",
": c #5F6E87",
"> c #5F6E88",
", c #5F7088",
"< c #606B86",
"1 c #606C87",
"2 c #636F89",
"3 c #646F8A",
"4 c #63718A",
"5 c #647089",
"6 c #67738C",
"7 c #67758E",
"8 c #68728B",
"9 c #68738C",
"0 c #68748C",
"q c #6C758F",
"w c #6D7B8B",
"e c #6E7C8C",
"r c #6B7690",
"t c #6D7792",
"y c #6F7892",
"u c #717792",
"i c #707892",
"p c #778590",
"a c #78879C",
"s c #78889D",
"d c #7C8A9F",
"f c #7E8CA1",
"g c #8992A7",
"h c #8597A8",
"j c #8A99AB",
"k c #8C9BAB",
"l c #8B9EAB",
"z c #8C9AAC",
"x c #8E9EAD",
"c c #919FAF",
"v c #969FB0",
"b c #8EA0AF",
"n c #91A0AF",
"m c #92A1B0",
"M c #95A3B2",
"N c #96A4B4",
"B c #99A4B2",
"V c #9CA3B6",
"C c #9AA5B6",
"Z c #9CA4B6",
"A c #9FA9B7",
"S c #9BA6B8",
"D c #9CA7B9",
"F c #9FA9B8",
"G c #A0A6B9",
"H c #A0ABB9",
"J c #A4AAB9",
"K c #A4ADBB",
"L c #A7ABBE",
"P c #A7ACBD",
"I c #A8AEBD",
"U c #A7B0BE",
"Y c #ABB0BF",
"T c #ABB3C1",
"R c #ACB1C1",
"E c #AFB4C1",
"W c #AFB5C3",
"Q c #B1B3C2",
"! c #B0B6C3",
"~ c #B0B6C4",
"^ c #B3B8C4",
/* pixels */
"++++ ++++++++++++++++++++++++++--++++++++++++++++++++++++++ ++++",
"+ #1+#-+---$<-#-++++++-###@=+$#++#$+=@###-++++++-#-<$---+-#+1# +",
"+:2402222--2222$++:3222=12322t-  -t22321=2223:++$2222--2222052:+",
"+=1a~RTGY n^^IL+++l~~~~5n^^^~^2==2^~^^^n5~~~~l+++LI^^n#YGTR~s1=+",
"+@1z^^^^~=mE^^^2++n^^^^:x^^^^^2222^^^^^x:^^^^n++2^^^Em=~^^^^z1@+",
"+=:n~^^^~@j^^^^+++m^^^^:x^^^^^2222^^^^^x:^^^^n+++^^^^j@~^^^~n:=+",
"+--n^^^^~=k~^^^+++M^~^^2n^^^^^2222^^^^^n2^^~^M+++^^^~k=~^^^^n--+",
"+@-n~^^^E=n~^^^#++n^^^R4n^^^^^2222^^^^^n5R^^^n++#^^^~n=E^^^~n-@+",
"++-n^^^^^#n^^^^++ H^^^~=n^^^^~2222~^^^^n=~^^^H ++^^^^n#^^^^^n-++",
"+--x~^^^^#n^^^^=++n^^^^=xT^^^^2222^^^^Tx=^^^^n++=^^^^n#^^^^^x--+",
"+:1x^^^^~+m^^^^=+=M^^^^#x~^^^^0220^^^^~x#^^^^M=+=^^^^M+~^^^^x1:+",
"+<:n~^E^R#n^^EE2+1n^~~^4h~^^^^2222^^^^~h4^~~^n1+2EE^^n#R^E^~n:<+",
"=- &=====++====#+ o===$+o====1=11=1====o+$===o +#====++=====& -=",
"+-: $=== +o#===+++ 1--+# =====2222===== #+--1 +++===#o+ ===$ :-+",
"+2:n~~~^I@n^^^^++5xE^^P+n^^^^^2222^^^^^n+P^^Ex5++^^^^n@I^~~~n:2+",
"+-7n~^^^E+x^^^^++4F^^^~+M^^^^~2222~^^^^M+~^^^F4++^^^^x+E^^^~n7-+",
"+2:n^^^^~+z^^^~++2C^^^^ n^^^^^2222^^^^^n ^^^^C2++~^^^z+~^^^^n:2+",
"+=1n^^^^^=x^^^^++#m^^^E#n^^^^~2222~^^^^n#E^^^m#++^^^^x=^^^^^n1=+",
"==1n~^^^^+x^^^^ ++n^^^!4n~^^^~2222~^^^~n4!^^^n++ ^^^^x+^^^^~n1==",
"+4-n^^^^^#n^^^P=+$n^^^~=U^^^^^5225^^^^^U=~^^^n$+=P^^^n#^^^^^n-4+",
"+t2n^^^^^+m^^^^+++M^^^R=M^^^^^5225^^^^^M=R^^^M+++^^^^m+^^^^^n2t+",
"+22f^^~^g#x^^^^++-n^E!~2MET^^v5225v^^TEM2~!E^n-++^^^^n#g^~^^f22+",
"+2&%61===+:5:==++++====++==============++====++++==:5:+===16%&2+",
"+=: #====+&====++ +=:==+o==#===22===#==o+==:=+ ++====&+====# :=+",
"#<@d~E!~J+B^^^^ +#D^^^~@M^^^^^2222^^^^^M@~^^^D#+ ^^^^B+J~!E~d@<#",
"+2-n^^^^I@n~^^^=+#S^^^~ x^^^^^2222^^^^^x ~^^^S#+=^^^~n#I^^^^n-2+",
" =-n^^^^R M^^^^#++n^^^E#n^^^^^2222^^^^^n#E^^^n++#^^^^M R^^^^n-= ",
" #-n^^^^I+n^^^^+++N^^^~+M^^^^^2222^^^^^M+~^^^N+++^^^^n I^^^^n-# ",
"+2-c^^^^Y+m^^^^+++M^^^E#n^^^^^2222^^^^^n#E^^^M+++^^^^n+Y^^^^c-2+",
"=#-n^^^^P+m^^^^++ m^^^~+n^^^^Q2222Q^^^^n+~^^^m ++^^^^m+P^^^^n-#=",
"+=-m^^^^R=C^^^~++@B^^^E+n~^^^^2222^^^^~n+E^^^B@++~^^^C=R^^^^m-=+",
"+$:m^^^^~@b^^^^++ n^^^^=nN^^^~2222~^^^Nn=^^^^n ++^^^^b@~^^^^m:$+",
"#+1x^^^^~-S^~Z~++#B^^^^-kT^^^^2222^^^^Tk-^^^^B#++~Z~^S-~^^^^x1+#",
"##1=:=#==+ ====++++====++====r====r====++====++++==== +==#=:=1##",
" ## ==#==+ ====++++==-=+++#====22====#+++=-==++++==== +==#== ## ",
"# @x~^^~Eox^^^^++-M^^^~#x^~~~^2222^~~~^x#~^^^M-++^^^^xoE~^^~x@ #",
"==2n~^^^P+n^^^^++#M^^^^=x~^^^^2222^^^^~x=^^^^M#++^^^^n+P^^^~n2==",
"=+1m^^^^Z+AR^^^+++n^^^~+j~^^^^1111^^^^~j+~^^^n+++^^^RA+Z^^^^m1+=",
"=++x!^^^T+M^^^^++=B^^^^+A^^^^^2222^^^^^A+^^^^B=++^^^^M+T^^^!x++=",
"2==n^^^ZV@j^^^^++ n^^^K-C~^^^^5225^^^^~C-K^^^n ++^^^^j@VZ^^^n==2",
"+=++@====+#====+++ ===#@+======22======+@#=== +++====#+====@++=+",
"+1++=====+=##==+++ ====++======11======++==== +++==##=+=====++1+",
"#2=f~E^^T=D^^^~+ +n^^^~=n^^~^Y5225Y^~^^n=~^^^n+++~^^^D=T^^~~f=2#",
"+#2kT^^~^:A^^^^++=S^^^E@f~^~E^2222^E~^~f@E^^^S=++^^^^A:^~^^Tk2# ",
"+#-==##*#-=##=-  #-**=-===##=-2222-=##===-=**-#  -=##=-####==-# ",
"#####@####@@######## #######=#=--=#=####### ##################@@",
"###== +#+#*#=######-. =+ *  -=####=-  * += .-####@#=#*@+#+ ==###",
"###t@@======;;:+++2iX=;:==:&:2*==*2:&:==::=Xi2++ ;;:===&==@@t###",
"##-;:=::::::::2  =:i2:::24,::&@==#&:;,42:::2i:=++2::::::::=:;-##",
"##*:::::::::;:4 +=2:=::4224::#@###@:;4224::=:2=++4:::::::::::*##",
"#@=::::::2244;2 +=451::>:444;2@==#2;444:>::154=++2:4422::::::=@@",
"@@*2:9::::444:4 + 5::=:2:444;-@###-;444:2:=::4   4:444::::9:2#@@",
"##*2::=:4:444:5 +#4::=:4444422####2244444:=::4#+ 4:444:4:-::2*##",
"###:::==2224444+++4::=24444424####42444442=::4+++44442>2==:::###",
"###::8;>4444440++ 49::2224444=####=4444222::94 ++0444444>:5::@##",
"@@#::5244424444@+#2:8242:2444=*##*=4442:2428:2#+@4444244425::@##",
"@#@::224424q254+++635::4::55:4-##-4:55::4::536+++452q424422::###",
"@@@58:252:u0225+++22q2:2::9q52=##=24q9::2:2q22+++5220u:252:85###",
"+#@22:2:::i5552#+@22t:585u5:t4=##=4t:5u585:t22@+#2555i:::2:22##+",
"+#*#19-2:25q89u+++y5222::22223<#@-32222::22256+++318q-2:2895=*#+",
"++##################################O#++############w#######+o++",
"o##################################################wpw#########o",
"+###################################################e##########+",
"o#################++##O##########+######O#######+##############o"
};
