/* XPM */
static char *e5bc8021325943ab942880e21af1c2b5aDB9FTynLYdv39EU[] = {
/* columns rows colors chars-per-pixel */
"64 64 224 2 ",
"   c None",
".  c #5A6682",
"X  c #5C6681",
"o  c #5D6782",
"O  c #5F6682",
"+  c #5B6784",
"@  c #5B6982",
"#  c #5B6983",
"$  c #5D6882",
"%  c #5D6982",
"&  c #5D6883",
"*  c #5D6983",
"=  c #5D6C83",
"-  c #5E6C83",
";  c #5A6984",
":  c #5D6984",
">  c #5E6984",
",  c #5E6985",
"<  c #586D86",
"1  c #5A6C86",
"2  c #5A6D87",
"3  c #5D6C84",
"4  c #5D6C85",
"5  c #5E6C84",
"6  c #5E6C85",
"7  c #616C85",
"8  c #636E85",
"9  c #626C87",
"0  c #606E87",
"q  c #636E86",
"w  c #636F87",
"e  c #626C88",
"r  c #626D88",
"t  c #606E89",
"y  c #626E89",
"u  c #636F89",
"i  c #636F8A",
"p  c #656F8A",
"a  c #656F8B",
"s  c #607088",
"d  c #607089",
"f  c #627088",
"g  c #627188",
"h  c #627089",
"j  c #627189",
"k  c #62708A",
"l  c #62718B",
"z  c #657188",
"x  c #657089",
"c  c #657189",
"v  c #667189",
"b  c #657288",
"n  c #657388",
"m  c #657389",
"M  c #667289",
"N  c #65708A",
"B  c #65718B",
"V  c #66718A",
"C  c #65738A",
"Z  c #65738B",
"A  c #66728A",
"S  c #67728A",
"D  c #65738C",
"F  c #66728C",
"G  c #67728C",
"H  c #67738D",
"J  c #65748D",
"K  c #66748D",
"L  c #687388",
"P  c #687389",
"I  c #68728A",
"U  c #68738A",
"Y  c #697489",
"T  c #69748A",
"R  c #6A758A",
"E  c #6B768A",
"W  c #68728C",
"Q  c #69728C",
"!  c #68738C",
"~  c #69748C",
"^  c #6A758C",
"/  c #6B758C",
"(  c #6A758D",
")  c #6B768C",
"_  c #6B768D",
"`  c #69758E",
"'  c #6A758F",
"]  c #68768E",
"[  c #6A768E",
"{  c #6B768E",
"}  c #6A768F",
"|  c #6B768F",
" . c #6A778F",
".. c #6E778F",
"X. c #6D788E",
"o. c #6E798F",
"O. c #6F7A8F",
"+. c #697790",
"@. c #6A7790",
"#. c #6E7590",
"$. c #6D7690",
"%. c #6E7790",
"&. c #6D7890",
"*. c #6D7891",
"=. c #6F7990",
"-. c #6F7991",
";. c #6F7A90",
":. c #6F7A91",
">. c #6E7892",
",. c #6E7992",
"<. c #6F7992",
"1. c #6F7A92",
"2. c #6F7B93",
"3. c #6E7C92",
"4. c #717992",
"5. c #717993",
"6. c #717B93",
"7. c #737A93",
"8. c #717C93",
"9. c #727C92",
"0. c #727C93",
"q. c #737E93",
"w. c #717B94",
"e. c #717C94",
"r. c #727C94",
"t. c #737C94",
"y. c #737C95",
"u. c #737D95",
"i. c #747F95",
"p. c #767F95",
"a. c #747C96",
"s. c #747D96",
"d. c #747F96",
"f. c #747F97",
"g. c #767F96",
"h. c #787F96",
"j. c #787F97",
"k. c #778096",
"l. c #778097",
"z. c #798097",
"x. c #778098",
"c. c #778199",
"v. c #7B8198",
"b. c #79809A",
"n. c #7C819A",
"m. c #7D839B",
"M. c #7D839C",
"N. c #83869D",
"B. c #84879E",
"V. c #8490A0",
"C. c #8692A2",
"Z. c #8B95A6",
"A. c #8E97A8",
"S. c #979DAD",
"D. c #98A3AF",
"F. c #98A3B0",
"G. c #98A3B2",
"H. c #9AA3B2",
"J. c #9CA3B1",
"K. c #9BA4B2",
"L. c #9BA6B2",
"P. c #9CA4B2",
"I. c #9BA4B5",
"U. c #9DA6B5",
"Y. c #9FA7B4",
"T. c #9DA8B3",
"R. c #9DA8B5",
"E. c #9FA9B4",
"W. c #9FA9B7",
"Q. c #9FAAB6",
"!. c #A2A5B4",
"~. c #A4A7B6",
"^. c #A0AAB4",
"/. c #A0AAB5",
"(. c #A1AAB5",
"). c #A1AAB6",
"_. c #A1ABB6",
"`. c #A0AAB7",
"'. c #A4A8B5",
"]. c #A3ACB7",
"[. c #A5A9B8",
"{. c #A4ACB8",
"}. c #A5AEB8",
"|. c #A9AFB9",
" X c #AEAFBB",
".X c #A9AFBC",
"XX c #AEAFBC",
"oX c #A9B1BB",
"OX c #AAB0BD",
"+X c #ADB2BC",
"@X c #B1B2BE",
"#X c #B2B6C0",
"$X c #B5B5C0",
"%X c #B5B6C0",
"&X c #B5B6C1",
"*X c #B6B7C2",
"=X c #B6B7C3",
"-X c #B7B8C3",
";X c #B7B8C4",
":X c #BABAC3",
">X c #B9B8C4",
",X c #B9BAC4",
"<X c #BABAC4",
"1X c #BABAC5",
"2X c #BBBAC6",
"3X c #BBBBC6",
"4X c #BBBBC7",
"5X c #BCBAC5",
"6X c #BBBCC6",
"7X c #BCBDC6",
"8X c #BCBDC7",
"9X c #BEBDC6",
"0X c #BEBCC7",
"qX c #BEBDC7",
"wX c #BBBBC8",
"eX c #BCBDC8",
"rX c #BEBDC8",
"tX c #BEBDC9",
"yX c #BFBFC8",
"uX c #BFBFC9",
"iX c #BFBFCA",
"pX c #C2C1C9",
"aX c #C2C1CA",
"sX c #C2C1CB",
/* pixels */
"A A A A A A A A A A A A A A A A                                                                 A A A A A A A A A A A A A A A A ",
"A A A A A A A A A A A A A A A A                                                                 A A A A A A A A A A A A A A A A ",
"A A F F F F i A F A p k F K ~ A                                                                 A ~ K F k p A F A i F F F F A A ",
"A A 1.V.rX,X,X7.,XA `.pXrX$X7.k                                                                 A 7.$XrXpX`.~ ,X7.,X,XrXV.1.A A ",
"A A 1.H.pXpXpXq.9X~ `.rXpXpXr.F                                                                 F r.pXpXrX`.~ 9Xq.pXpXpXH.1.A A ",
"A A 1.`.rXpXpXq.9XA J.pXpXpXr.i                                                                 p r.pXpXpXJ.A 9Xq.pXpXrX`.1.A A ",
"A A 1.`.rXpXpXl.rX..K.rXpXpXr.i                                                                 p r.pXpXrXK...rXl.pXpXrX`.1.A A ",
"A A 1.`.rXpX,Xi.rX~ `.rXpXpXr.p                                                                 A r.pXpXrX`.~ rXl.,XpXrX`.1.A A ",
"A A 1.`.pXpXrX%.pX~ `.pXpXrXr.A                                                                 F r.rXpXpX`.~ pX%.rXpXpX`.1.A A ",
"A A 1.T.rXpXpX..rX~ `.pXpXpXr.c.                                                                r.r.pXpXpX`.~ rX..pXpXpXT.1.A A ",
"U A 1.U.pXpXpX~ ,XA `.pXpXpXb.c.                                                                r.b.pXpXpX].A ,X~ pXpXpXU.1.A A ",
"A T 1.`.wXrX9Xl.XX~ `.pXpXrXr.c.                                                                r.r.rXpXpX`.~ XXl.9XrXwX`.1.T A ",
"U A * * * > w w > * * # * * 6 i.                                                                7.6 * * # * * > w w > * * * A A ",
"A A * i * # w T * * * * * * F c.                                                                r.F * * * * * * T w # * i * A A ",
"U ~ 1.T.rXrX$XA $XA `.pXpXpXr.c.                                                                r.r.pXpXpX`.A $XA $XrXrXT.1.~ A ",
"A A c.`.rXpXrXA 9XA T.pXpXrXr.c.                                                                r.r.rXpXpXT.A 9XA rXpXrX`.c.A A ",
"A ~ 1.`.pXpXpXA rXT I.pXpXpXr.c.                                                                r.r.pXpXpXI.T rXA pXpXpX`.1.~ A ",
"A A 1.`.pXpX9X~ pX~ T.pXpXrXr.c.                                                                r.r.rXpXpXT.~ pX~ 9XpXpX`.1.A A ",
"A T 1.`.rXpXrXb.pXA Q.pXpXrXr.c.                                                                r.r.rXpXpXQ.A pXb.rXpXrX`.1.T ~ ",
"A A @.`.pXpXrX~ rX~ `.pXpXpXr.c.                                                                r.r.pXpXpX`.~ rX~ rXpXpX`.@.A A ",
"U A q.`.pXpX,X~ pXA `.pXpXpXi.c.                                                                r.i.pXpXpX`.A pX~ ,XpXpX`.q.A A ",
"U F q.A.9XrXrXl.S.~ H.pXpX[.i.c.                                                                r.i.[.pXpXH.~ S.l.rXrX9XA.q.F A ",
"A A * * 6 * * A * * * > * * * 1.                                                                ~ * * * > * * * A * * 6 * * A A ",
"A A * 6 # * * A * * * * * * 6 c.                                                                r.6 * * * * * * A * * # 6 * A A ",
"A A A Z.rX9X9X~  XA {.pXpXpXr.l.                                                                r.r.pXpXpX{.A  X~ 9X9XrXZ.A A F ",
"A A 1.`.pXpXrX~ -XA `.rXpXpXr.i.                                                                1.r.pXpXrX`.~ -X~ rXpXpX`.1.A A ",
"U T 1.`.pXpX9X~ ,XA {.pXpXpXr.r.                                                                1.r.pXpXpX{.A ,X~ 9XpXpX`.1.T A ",
"A A 1.`.pXpXrXT ;XT `.pXpXpXr.i.                                                                r.r.pXpXpX`.A ;XT rXpXpX`.1.A A ",
"A A 1.Q.pXpX9X~ ,XA `.pXpXpXr.c.                                                                r.r.pXpXpX`.A ,X~ 9XpXpXQ.1.A A ",
"A A 1.`.pXpXrXA $XA `.pXpX9Xr.c.                                                                r.r.9XpXpX`.A $XA rXpXpX`.1.A ~ ",
"A A 1.`.pXpXrX~ ,X~ |.pXpXpXr.c.                                                                r.r.pXpXpX|.~ ,X~ rXpXpX`.1.A A ",
"U A 1.`.pXpXpX1.rXA Q.pXpXrXr.c.                                                                r.r.rXpXpXQ.A rX1.pXpXpX`.1.A A ",
"A A 1.U.pXpXpX1.@X%..XpXrX Xr.c.                                                                r.r. XrXpX.X%.@X1.pXpXpXU.1.A A ",
"U A > * * * * w = * # * * > > %.                                                                ~ > > * * # * = w * * * * > A A ",
"U A * * * + * A * * * > * > ~ c.                                                                r.~ > * > * * * A * + * * * A A ",
"A A F Q.rXpXrX~ 5XA K.rXrXpXr.c.                                                                r.r.pXrXrXK.A 5X~ rXpXrXQ.F A A ",
"U A q.`.rXpXpX~ $XA `.pXpXpXr.c.                                                                r.r.pXpXpX`.A $X~ pXpXrX`.q.A A ",
"W A 1.`.pXpXrXA !.A +X,XpXpX7.i.                                                                7.7.pXpX,X+XA !.A rXpXpX`.1.A ~ ",
"U A A Q.rXpXpXA ,XA ].pXpXpXr.c.                                                                r.r.pXpXpX].A ,XA pXpXrXQ.A A ~ ",
"W A @.`.pXpX#X..~.A D.pXpXpXi.c.                                                                r.i.pXpXpXD.A ~...#XpXpX`.@.A ~ ",
"U A * * * * o i A * * * * * ~ c.                                                                r.~ * * * * * A i o * * * * A A ",
"A A * * * * = A w * * * * * ~ i.                                                                7.~ * * * * * w A = * * * * A A ",
"A A ~ A.rXrXrX~ 6X~ OXrXpX:Xr.c.                                                                r.r.:XpXrXOX~ 6X~ rXrXrXA.~ A A ",
"A A r.P.6XpXrX~ '.1.oXrXrXpXr.i.                                                                r.r.pXrXrXoX1.'.~ rXpX6XP.r.A A ",
"A ~ A ~ ~ A A A A T ~ ~ ~ T 1.h.                                                                r.1.T ~ ~ ~ T A A A A ~ ~ A ~ A ",
"~ ~ ~ ~ ~ ~ ~ ~ ~ ~ T ~ T T ~ 1.                                                                X.~ T T ~ T ~ ~ ~ ~ ~ ~ ~ ~ ~ ~ ",
"~ ~ ~ 1.~ A k T A ~ ~ A A A ~ ..                                                                ~ ~ A A A ~ ~ A T k A ~ 1.~ ~ ~ ",
"T A r.N.i.~ k i < < k < k A ~ 1.                                                                ~ ~ A k < k < < i k ~ i.N.r.A A ",
"T A w.B.h.k k k k k w k k k ~ X.                                                                ~ ~ k k k w k k k k k h.B.w.A A ",
"T A k 1.w.k k k k k k A k A ~ X.                                                                ~ ~ A k A k k k k k k w.1.k A A ",
"T F A i.1.i k k k A F F F k ~ X.                                                                ~ ~ k F F F A k k k i 1.i.A F A ",
"T A A 1.1.~ k k i k F F F k ~ X.                                                                ~ ~ k F F F k i k k ~ 1.1.A A A ",
"T ~ A 1.w.1.k A A k F F F k ~ X.                                                                ~ ~ k F F F k A A k 1.w.1.A ~ A ",
"T A A 1.1.1.k i F A A F F F ~ X.                                                                ~ ~ F F F A A F i k 1.1.1.A A A ",
"T A A h.1.~ i K ~ ~ F F F ~ ~ X.                                                                ~ ~ ~ F F F ~ ~ K i ~ 1.h.A A A ",
"T A i ~ h.%.~ ~ 1.F F F F ~ ~ X.                                                                ~ ~ ~ F F F F 1.~ ~ %.h.~ i A A ",
"A A F ~ i.~ ~ F @.~ F ~ ~ F ~ X.                                                                ~ ~ F ~ ~ F ~ @.F ~ ~ i.~ F A A ",
"W A 1.1.m.7.1.w.1.1.i.z.~ k ~ X.                                                                ~ ~ k ~ z.i.1.1.w.1.7.m.1.1.A A ",
"U A r.r.m.w.h.h.i.M.i.w.m.F A X.                                                                ~ A F m.w.i.M.i.h.h.w.m.r.r.A A ",
"A A 7.r.r.r.r.w.w.r.r.r.3.%.F X.                                                                ~ F %.3.r.r.r.w.w.r.r.r.r.7.A A ",
"6 * . . o > * 6 . . . . ; o o X.                                                                ~ o o ; . . . . 6 * > o . . * w ",
"* . . . . . . . . . . . . . . X.                                                                ~ . . . . . . . . . . . . . . 6 ",
"> . . . . . . . . o . + . . o ~                                                                 A o . . + . o . . . . . . . . w ",
"* . * . . . . . o o . . o . . A                                                                 A . . o . . o o . . . . . * . 6 "
};
