/* XPM */
static char *fe7af318c7c1411af50d7e6a237069b8JaQf2zWPp5gqzOwY[] = {
/* columns rows colors chars-per-pixel */
"32 32 4 1 ",
"  c #0D1527",
". c #161F32",
"X c #222A3A",
"o c #2D3443",
/* pixels */
"................................",
"XXXXXXXXXXXXXXXXXXX...XXXXXXXXXX",
"ooooooooooooooooooXX.XXXoXXoXooo",
"XXXXXXXXXXXXXXXXXooX XXXXXXXXXXX",
"XXXXXXXXXXXXXXXXXXoX XXXXXXXXXXX",
"XXXXXXXXXXXXXXXXXXoX XXXXXXXXXXX",
"XXXXXXXXXXXXXXXXXXoX XXXXXXXXXXX",
"XXXXXXXXXXXXXXXXXXoX XXXXXXXXXXX",
"XXXXXXXXXXXXXXXXXXoX XXXXXXXXXXX",
"XXXXXXXXXXXXXXXXXXoX XXXXXXXXXXX",
"XXXXXXXXXXXXXXXXXXoX XXXXXXXXXXX",
"XXXXXXXXXXXXXXXXXXoX XXXXXXXXXXX",
"XXXXXXXXXXXXXXXXXXXX XXXXXXXXXXX",
"XXXXXXXXXXXXXXXXXXXX XXXXXXXXXXX",
"XXXXXXXXXXXXXXXXXXX.. XXXXXXXXXX",
"                  ....          ",
"................................",
"XXXXXX...XXXXXXXXXXXXXXXXXXXXXXX",
"oooooXX.XXXoXXoXoooooooooooooooo",
"XXXXooX XXXXXXXXXXXXXXXXXXXXXXXX",
"XXXXXoX XXXXXXXXXXXXXXXXXXXXXXXX",
"XXXXXoX XXXXXXXXXXXXXXXXXXXXXXXX",
"XXXXXoX XXXXXXXXXXXXXXXXXXXXXXXX",
"XXXXXoX XXXXXXXXXXXXXXXXXXXXXXXX",
"XXXXXoX XXXXXXXXXXXXXXXXXXXXXXXX",
"XXXXXoX XXXXXXXXXXXXXXXXXXXXXXXX",
"XXXXXoX XXXXXXXXXXXXXXXXXXXXXXXX",
"XXXXXoX XXXXXXXXXXXXXXXXXXXXXXXX",
"XXXXXXX XXXXXXXXXXXXXXXXXXXXXXXX",
"XXXXXXX XXXXXXXXXXXXXXXXXXXXXXXX",
"XXXXXX.. XXXXXXXXXXXXXXXXXXXXXXX",
"     ....                       "
};
