/* XPM */
static char *_cd06d583f4f4dcbed414d39fe44a916JgxJCxKAkKHMa3Zn[] = {
/* columns rows colors chars-per-pixel */
"32 32 6 1 ",
"  c #0D1527",
". c #061128",
"X c #161F32",
"o c #242D3F",
"O c #3F4754",
"+ c #515660",
/* pixels */
"X..............................X",
".O+++++++++++++++++++++++++++++.",
".oO++++++++++++++++++++++++++++.",
".ooOOOOOOOOOOOOOOOOOOOOOOOOOO++.",
".ooOO+++++++++++++++++++++++O++.",
".ooOoOOOOOOOOOOOOOOOOOOOOOO+O++.",
".ooOoOOOOOOOOOOOOOOOOOOOOOO+O++.",
".ooOoOOOOOOOOOOOOOOOOOOOOOO+O++.",
".ooOoOOOOOOOOOOOOOOOOOOOOOO+O++.",
".ooOoOOOOOOOOOOOOOOOOOOOOOO+O++.",
".ooOoOOOOOOOOOOOOOOOOOOOOOO+O++.",
".ooOoOOOOOOOOOOOOOOOOOOOOOO+O++.",
".ooOoOOOOOOOOOOOOOOOOOOOOOO+O++.",
".ooOoOOOOOOOOOOOOOOOOOOOOOO+O++.",
".ooOoOOOOOOOOOOOOOOOOOOOOOO+O++.",
".ooOoOOOOOOOOOOOOOOOOOOOOOO+O++.",
".ooOoOOOOOOOOOOOOOOOOOOOOOO+O++.",
".ooOoOOOOOOOOOOOOOOOOOOOOOO+O++.",
".ooOoOOOOOOOOOOOOOOOOOOOOOO+O++.",
".ooOoOOOOOOOOOOOOOOOOOOOOOO+O++.",
".ooOoOOOOOOOOOOOOOOOOOOOOOO+O++.",
".ooOoOOOOOOOOOOOOOOOOOOOOOO+O++.",
".ooOoOOOOOOOOOOOOOOOOOOOOOO+O++.",
".ooOoOOOOOOOOOOOOOOOOOOOOOO+O++.",
".ooOoOOOOOOOOOOOOOOOOOOOOOO+O++.",
".ooOoOOOOOOOOOOOOOOOOOOOOOO+O++.",
".ooOoOOOOOOOOOOOOOOOOOOOOOO+O++.",
".ooOoooooooooooooooooooooooOO++.",
".ooOOOOOOOOOOOOOOOOOOOOOOOOOO++.",
".ooooooooooooooooooooooooooooO+.",
".oooooooooooooooooooooooooooooO.",
" .............................. "
};
