/* XPM */
static char *_1fad7d313a3411fe78a4fc36ac5163aSyHg8YDjbbhNYLlp[] = {
/* columns rows colors chars-per-pixel */
"32 32 17 1 ",
"  c #0D1527",
". c #161F32",
"X c #222836",
"o c #282837",
"O c #2F2739",
"+ c #222A3A",
"@ c #292E3C",
"# c #302D3C",
"$ c #2A313C",
"% c #292B41",
"& c #2D2C43",
"* c #2D3443",
"= c #323A46",
"- c #3C3B42",
"; c #3D434D",
": c #46444A",
"> c #464C55",
/* pixels */
"................................",
"+++++++++++++++++++...++++++++++",
"******************++.+++*++*+***",
"+++++++++++++++++**+ +++++++++++",
"++++++++++++++++++*+ +++++++++++",
"++++++++++++++++++*+ +++++++++++",
"++++++++++++++++++*+ +++++++++++",
"++++++++++++++++++*+ +++++++++++",
"++++++++++++++++++*+ +++++++++++",
"++++++++++++++++++*+ +++++++++++",
"++++++++++++++++++*+ +++++++++++",
"++++++++++++++++++*+ +++++++++++",
"++++++++++++++++++++ +++++++++++",
"++++++++++++++++++++ +++++++++++",
"++++++++++++++++;++.. ;+++++++++",
"                $$=..=$         ",
"................=O====O.........",
"++++++...++++++;;;;;;;;+++++++++",
"*****++.+++*++*;>>::>>:*********",
"++++**+ +++++++;;;;X;;X+++++++++",
"+++++*+ +++++&&;;;;X;;X;++++++++",
"+++++*+ +;;;;&;;;;;;-X-+++++++++",
"+++++*+$;+++&#&%;;;;;;++++++++++",
"+++++*+ ++++o&#;;%%%++++++++++++",
"+++++*+ ++++oo&;;&&+++++++++++++",
"+++++*+ ++++ooo;;&;+++++++++++++",
"+++++*+ +++++oo@@@++++++++++++++",
"+++++*+ ++++++o;;;++++++++++++++",
"+++++++ ++++++++++++++++++++++++",
"+++++++ ++++++++++++++++++++++++",
"++++++.. +++++++++++++++++++++++",
"     ....                       "
};
