/* XPM */
static char *_7c300262e7d4405ce006bc2d81b1543R9xoM2TiR5jnNhwC[] = {
/* columns rows colors chars-per-pixel */
"32 32 74 1 ",
"  c #0D1527",
". c #111929",
"X c #161F32",
"o c #1B222E",
"O c #1B2432",
"+ c #242C33",
"@ c #232B3A",
"# c #282F3D",
"$ c #283035",
"% c #2A323E",
"& c #303739",
"* c #363D3D",
"= c #3B423F",
"- c #2E3541",
"; c #303742",
": c #343B43",
"> c #393F44",
", c #383E48",
"< c #3B4346",
"1 c #3D4449",
"2 c #444B44",
"3 c #484F46",
"4 c #404749",
"5 c #444B4B",
"6 c #494E4B",
"7 c #4B534E",
"8 c #56574F",
"9 c #545B4D",
"0 c #585F4E",
"q c #474E50",
"w c #494F50",
"e c #4E5550",
"r c #505751",
"t c #545B53",
"y c #585D53",
"u c #5E5F5A",
"i c #5A614F",
"p c #5A6155",
"a c #5A6156",
"s c #5D6357",
"d c #5E6457",
"f c #5F6558",
"g c #5F6658",
"h c #636456",
"j c #666857",
"k c #606758",
"l c #616859",
"z c #656B5B",
"x c #666D5B",
"c c #63695D",
"v c #676D5C",
"b c #686A58",
"n c #686D5A",
"m c #686F5C",
"M c #716D5C",
"N c #6D745E",
"B c #71715E",
"V c #6B6C61",
"C c #6C6F61",
"Z c #6D6F61",
"A c #6A7062",
"S c #6F7062",
"D c #6F7562",
"F c #707062",
"G c #707662",
"H c #737A64",
"J c #767B67",
"K c #767C67",
"L c #797A61",
"P c #777D68",
"I c #797E69",
"U c #7A8069",
"Y c #808067",
"T c #80866F",
/* pixels */
"XXXXXXXXXXXXXXXXXXXXXXXXXXXXXXXX",
"@@@@@@@@@@@@@@@@@@@XXX@@@@@@@@@@",
"------::,<<<<<<<<<:-@%%%:#@-@---",
"@@@@@#%:<11114444ew1$<>:-%#@@@@@",
"@@@@@%:<5777eereeey7*54<:-#@@@@@",
"@@@@@%<5rassdfffffva3r75<:%@@@@@",
"@@@@@-17azzxvmmmmmDl7yt74>%#@@@@",
"@@#%%:4eazxxvmmmmmDl9sar61:-%%#@",
"@#%%;<5rdxxvmmmmmmDx9kdye51::%%@",
"@%%:>17tfvvmmmmmmmDx9zlst751>:%@",
"@%;><57ylmmmmmmmmmGmimmlat751:%@",
"@%:<46ralmmmmmmmmmGmimmzdyr74>%#",
"@%:<57ralmmmmmmmmmNmimmzfatr5<;@",
"@%>16etslmmmmmmmmmmmimmxldat61:#",
"#-<47rydzmmmmmmmUmmhhiUxllda71:#",
".o+&=2379iiiiiiiNNHhhHN09997<%+.",
"O@%:157rahhhhhhfHMHHHHMdaat94:%O",
"@%:<477rammmmmmUUUUUUUUxlkdy71:#",
"-><4q6e7lmmGmmGUTTYYTTYSAvcft61;",
"@%-:4e73lmmmmmmUUUUnUUnxldat71:#",
"@#%;:662dxxvvSFUUUUnUInJdyr74<-#",
"@#%%-44<aJKPISUUUUUULxLlar74<:%@",
"@@#%%11rAfllCBFCUUUIIIxft74>:-%@",
"@@@@#<<*raflbCBUUCCCvxxsr5>-%%#@",
"@@@@@>>%7tyahjVJJCVlllky71:##@@@",
"@@@@@::+477e8ttCAuAttrr74>-#@@@@",
"@@@@@:%O>114466777766541>:%@@@@@",
"@@@@@-#.-::::>>rtt<<>>::-%#@@@@@",
"@@@@@@@ @@##%%%%%--%%%#@@@@@@@@@",
"@@@@@@@ @@@@@##%%%%%#@@@@@@@@@@@",
"@@@@@@XX @@@@@####%##@@@@@@@@@@@",
"     XXXX      .....            "
};
