/* XPM */
static char *_465540b8a37441ee38b6779701bb8feEbiX1lIecc9GHFmZ[] = {
/* columns rows colors chars-per-pixel */
"32 32 13 1 ",
"  c #231618",
". c #0D1527",
"X c #161F32",
"o c #222A3A",
"O c #521E23",
"+ c #2D3443",
"@ c #5E2F6F",
"# c #584748",
"$ c #8F4349",
"% c #E16169",
"& c #F4B27A",
"* c #7B3781",
"= c #F9F5D2",
/* pixels */
"XXXXXXXXXXXXXXXXXXXXXXXXXXXXXXXX",
"oooooooooooooooooooXXXoooooooooo",
"++++++++++++++++++ooXooo+oo+o+++",
"ooooooooooooooooo++o.ooooooooooo",
"oooooooooooooooooo+o.ooooooooooo",
"oooooooooooooooooo+o.ooooooooooo",
"oooooooooooooooooo+o.ooooooooooo",
"oooooooooooooooooo+o.ooooooooooo",
"oooooooooooooooooo+o.ooooooooooo",
"oooooooooooooooooo+o.ooooooooooo",
"ooooooooooooo=oooo=o.ooooooooooo",
"oooooooooooo=%=oo=%o.ooooooooooo",
"oooooooooooo=%====%=.ooooooooooo",
"ooooooooooo=========.ooooooooooo",
"ooooooooooo===&&==&&X.oooooooooo",
"...........==== == =XX..........",
"XXXXXXXXXXX==== == ==XXXXXXXXXXX",
"ooooooXXXo======& &=oooooooooooo",
"+++++ooXooo+======@+++++++++++++",
"oooo++o.oooo*@@@@@@=oooooooooooo",
"ooooo+o.ooo==*****@=oooooooooooo",
"ooooo+o.ooo==*****$#oooooooooooo",
"ooooo+o.ooo##$$$$$@=oooooooooooo",
"ooooo+o.ooo==@@@@@Oooooooooooooo",
"ooooo+o.ooo=OOOOOOOooooooooooooo",
"ooooo+o.o===OOOOOOOooooooooooooo",
"ooooo+o.==ooOOooooOooooooooooooo",
"ooooo+o.ooooOoooooOooooooooooooo",
"ooooooo.oooooooooooooooooooooooo",
"ooooooo.oooooooooooooooooooooooo",
"ooooooXX.ooooooooooooooooooooooo",
".....XXXX......................."
};
