/* XPM */
static char *_05d665c7c3441f4eddcf7cbdbed4c4dywjWNxO4fjkiYQub[] = {
/* columns rows colors chars-per-pixel */
"32 32 13 1 ",
"  c #161F32",
". c #172032",
"X c #252829",
"o c #24282C",
"O c #222A3A",
"+ c #262D3A",
"@ c #363B3C",
"# c #2D3443",
"$ c #42494B",
"% c #4C5355",
"& c #555D5F",
"* c #5F696C",
"= c #768488",
/* pixels */
"      .XXX$$$$$$$$$$$XXXX.      ",
"OOOOOXX$$$****=@%****$$$$XXOOOOO",
"####X$$*******=@%*******=$$XO###",
"OOOX$*********=@%*********=$X+OO",
"OOX$****$$**@*=@%*@*=$$****=$XOO",
"Oo$***$$@@$*@*=@%*@*=@@$$***=$XO",
"X$***$%$$@$*@*=@%*@*=@$$%$***=$X",
"X$**$%&%$$$*@*=@%*@*=$$%&%$**=$X",
"@***$&&&%$**@*=@%*@**=%&&&$***=$",
"@**@%&&&$**=@*=@%*@***=&&&%@**=$",
"@**@%&$$**=@$*=@%*$@***=$&%@**=$",
"@**@$%$===@***=@%**=@***=%$@**=$",
"@**$@$&$@@**=@@@@@**=@@$&$@$**=$",
"@**$@@%&$**=@@@@@@@**=%&%@@$**=$",
"@**$%@$&$*=@@&====@@*=%&$@%$**=$",
"@**$&$@&$*=@&XX*XX=@*=%&@$&$**=$",
"@**$&%$&$*=@&XX*XX=@*=%&$&&$**=$",
"@**$&&%$=*=@&**X**=@*==&&&&$**=$",
"@**$&&$*=*=@@&***=@@*=*=$&&$**=$",
"@**$&$*=$*=@@&X*X=@@*=$*=$&$**=$",
"@**$$**=$**=@@@@@@@**=$**=$$**=$",
"@**$**=$$@**=@@@@@**=@$$**=$**=$",
"@**$**=$&$@***=@%**=@$&$**=$**=$",
"@**$**=$&&$@**=@%**@$&&$**=$**=$",
"@**$**=$&&&$@*=@%*@$&&&$**=$**=$",
"@**$***=$&&&@*=@%*$&&&$***=$**=$",
"@**$@***=$&&@*=@%*$&&$***=@$**=$",
"@**$@@***=$&@*=@%*$&$***=@@$**=$",
"@**=$$$***=$@*=@%*$$***=$$$%**=$",
"@*************=@%*************=$",
"@*************=@%*************=$",
"@$$$$$$$$$$$$$$@$$$$$$$$$$$$$$$$"
};
