/* XPM */
static char *_9275a7b10cd4f1694c0fe9a920973311dg8KANwrW5clxju[] = {
/* columns rows colors chars-per-pixel */
"32 32 9 1 ",
"  c #0D1527",
". c #161F32",
"X c #222A3A",
"o c #2B2A3A",
"O c #2D3443",
"+ c #4D4C62",
"@ c #5F5D7A",
"# c #77749D",
"$ c #8F8CB1",
/* pixels */
"................................",
"XXXXXXXXXXXXXXXXXXX...XXXXXXXXXX",
"OOOOOOOOOOOOOOOOOOXX.XXXOXXOXOOO",
"XXXXXXXXXXXXXXXXXOOX XXXXXXXXXXX",
"XXXXXXXXXXXXXXXXXXOX XXXXXXXXXXX",
"XXXXXXXXXXXXXXXXXXOX oooXXXXXXXX",
"XXXXXXXXXXXXXXXXXXOXo@@@oXXXXXXX",
"XXXXXXXXXXXXXXXXXXOo@###@oXXXXXX",
"XXXXXXXXXXXXXXXXXXo@#$$$#@oXXXXX",
"XXXXXXXXXXXXXXXXXo@#$##$$#@oXXXX",
"XXXXXXXXXXXXXXXXo@#$#@@##$#@oXXX",
"XXXXXXXXXXXXXXXo@###@oo@##$#@oXX",
"XXXXXXXXXXXXXXo@##$@oXXo@###@oXX",
"XXXXXXXXXXXXXo@#@@#$@oXXo@#@@oXX",
"XXXXXXXXXXXXo@#@@@@##@oXXo@@oXXX",
"       ooooo@@@#@oo@#@o   oo    ",
".....oo#####@@#@o..o@o..........",
"XXXXo@###$$$##@oXXXXoXXXXXXXXXXX",
"OOOo+@#@@@@#$#oXOOOOOOOOOOOOOOOO",
"XXXo+@@@ooo@##@oXXXXXXXXXXXXXXXX",
"XXXo+@@oXXXo@$#oXXXXXXXXXXXXXXXX",
"XXXo+@@oXXXo@$#oXXXXXXXXXXXXXXXX",
"XXXo+@@oXXXo@##oXXXXXXXXXXXXXXXX",
"XXXo+@@oXXXo@##oXXXXXXXXXXXXXXXX",
"XXXo+@@@ooo@##@oXXXXXXXXXXXXXXXX",
"XXXXo+@@@@@@@@oXXXXXXXXXXXXXXXXX",
"XXXXXo++++++ooXXXXXXXXXXXXXXXXXX",
"XXXXXOooooooXXXXXXXXXXXXXXXXXXXX",
"XXXXXXX XXXXXXXXXXXXXXXXXXXXXXXX",
"XXXXXXX XXXXXXXXXXXXXXXXXXXXXXXX",
"XXXXXX.. XXXXXXXXXXXXXXXXXXXXXXX",
"     ....                       "
};
