/* XPM */
static char *_0eadefaef2b4a61ea5f8c5812f42fa2m27NuUfD21R2rQYd[] = {
/* columns rows colors chars-per-pixel */
"32 32 88 1 ",
"  c #0D1527",
". c #101829",
"X c #161F32",
"o c #1B222E",
"O c #1A2334",
"+ c #232B33",
"@ c #232B3A",
"# c #2C2C3B",
"$ c #302F3D",
"% c #283035",
"& c #2A323E",
"* c #32333D",
"= c #363E3D",
"- c #3B423F",
"; c #2E3541",
": c #313741",
"> c #383741",
", c #343B43",
"< c #3A3D43",
"1 c #383E48",
"2 c #3B4246",
"3 c #3C4349",
"4 c #444447",
"5 c #434B44",
"6 c #484F46",
"7 c #414749",
"8 c #444B4B",
"9 c #4B4C4B",
"0 c #4B524E",
"q c #53534F",
"w c #535B4D",
"e c #585F4E",
"r c #494F50",
"t c #4E5650",
"y c #545650",
"u c #545B53",
"i c #5B5D54",
"p c #5C6256",
"a c #5F6658",
"s c #626657",
"d c #626758",
"f c #656B5B",
"g c #6A6F5C",
"h c #4D4C62",
"j c #504F63",
"k c #555465",
"l c #5A5967",
"z c #5E5D69",
"x c #64646B",
"c c #6C7261",
"v c #6F7562",
"b c #707662",
"n c #65647C",
"m c #68667D",
"M c #6C6A7D",
"N c #6F6E7F",
"B c #706F7F",
"V c #73717F",
"C c #757480",
"Z c #767580",
"A c #787781",
"S c #797881",
"D c #7C7B82",
"F c #7D7C82",
"G c #838284",
"H c #868684",
"J c #8A8A86",
"K c #8C8B86",
"L c #8D8D86",
"P c #8F8F87",
"I c #919187",
"U c #919188",
"Y c #908E9E",
"T c #93919F",
"R c #94939F",
"E c #97969F",
"W c #99979F",
"Q c #9A999F",
"! c #9D9C9F",
"~ c #9E9D9F",
"^ c #9F9E9F",
"/ c #A1A19F",
"( c #A6A5AE",
") c #A8A7AE",
"_ c #AAA8AE",
"` c #ACABAD",
"' c #AEADAE",
"] c #B1B1AD",
/* pixels */
"XXXXXXXXXXXXXXXXXXXXXXXXXXXXXXXX",
"@@@@@@@@@@@@@@@@@@@XXX@@@@@@@@@@",
";;;;;;,11222222222,;@&&&,@@;@;;;",
"@@@@@@&,233337777tr3%2,,;&@@@@@@",
"@@@@@&,28000ttyttti0=872,;@@@@@@",
"@@@@@&28ypppaaaaaagp5yq92,&@@@@@",
"@@@@@;30pfffggggggvdsHGF9,&@@@@@",
"@@@&&,7tpfffggggggvgKQWRS4,;&&@@",
"@@&&:28yaffggggggggL!''_TS4,,&&@",
"@&&,,30uagggggggggI/]!!`)YA4,,&@",
"@&:,280idggggggggU/]/IU!Q)YA4,&@",
"@&,279ypdgggggggU///UggLQE(YZ4;@",
"@&,280ypdggggggU//]UggggJQETA4:@",
"@&,39tupdgggggU/UU/]UggfgJQGS4,@",
"@;270yiafggggU/UUUU//UgfdfJHq3,@",
".o+*-56sggggUUU/UggU/Ugeewds2&+.",
"O@&,3yiQ!///UU/UgssgUgsappuw7,&O",
"@&,29DRQ!]]]//Uggggggggfdaai03,@",
";,2<xSTHLUU/]/ggbbbbbbbccgfau93:",
"@&;<zZFHfggU//Uggggggggfdapu03,@",
"@@&>lVSiaffgI]/ggggggggdaiy072;@",
"@@&*lNZypddgI]/ggggggggdpy072,&@",
"@@@*kMZqiadgL//gggggggfau071,;&@",
"@@@#jmB9ypagL//ggggggffpy81;&&@@",
"@@@#hnNZqiiJ!!Lgdddddddi03,@@@@@",
"@@@@#kmBZSFFGGiuuiiuuyy07,;@@@@@",
"@@@@@#llzxxx99999r099883,,&@@@@@",
"@@@@@;$*><<<,,2222221,,,;&@@@@@@",
"@@@@@@@ @@@@&&&&&;;&&&@@@@@@@@@@",
"@@@@@@@ @@@@@@@&&&&&@@@@@@@@@@@@",
"@@@@@@XX @@@@@@@@@&@@@@@@@@@@@@@",
"     XXXX      .....            "
};
