/* XPM */
static char *_21b5c0196364d688e7cf6f10b7445068KzCzReidQblpgrj[] = {
/* columns rows colors chars-per-pixel */
"32 32 58 1 ",
"  c #0D1527",
". c #111929",
"X c #161F32",
"o c #1B222E",
"O c #1B2432",
"+ c #242C33",
"@ c #232B3A",
"# c #282F3D",
"$ c #283035",
"% c #2A323E",
"& c #303739",
"* c #363D3D",
"= c #3A423F",
"- c #2E3541",
"; c #303742",
": c #343B43",
"> c #383F45",
", c #383E48",
"< c #3B4346",
"1 c #3D4449",
"2 c #444B44",
"3 c #484F46",
"4 c #404749",
"5 c #444B4B",
"6 c #484F4D",
"7 c #4B524E",
"8 c #52594C",
"9 c #555C4D",
"0 c #585F4E",
"q c #474E50",
"w c #494F50",
"e c #4B5251",
"r c #4E5550",
"t c #505750",
"y c #515851",
"u c #545B53",
"i c #555C53",
"p c #535955",
"a c #575E54",
"s c #585F54",
"d c #5A614F",
"f c #596053",
"g c #5A6156",
"h c #5D6357",
"j c #5E6457",
"k c #5F6558",
"l c #606757",
"z c #606758",
"x c #616859",
"c c #656B5B",
"v c #666D5B",
"b c #63695D",
"n c #676D5C",
"m c #686F5C",
"M c #6A7060",
"N c #6D7361",
"B c #6F7562",
"V c #707662",
/* pixels */
"XXXXXXXXXXXXXXXXXXXXXXXXXXXXXXXX",
"@@@@@@@@@@@@@@@@@@@XXX@@@@@@@@@@",
"------::,<<<<<<<<<:-@%%%:#@-@---",
"@@@@@#%:<11114444ew1$<>:-%#@@@@@",
"@@@@@%:<5777rrtrrra7*54<:-#@@@@@",
"@@@@@%<5yghhjkkkkkng3t75<:%@@@@@",
"@@@@@-17gccvnmmmmmBx7su74>%#@@@@",
"@@#%%:4rgcvvnmmmmmBx8hgy61:-%%#@",
"@#%%;<5yjvvnmmmmmmBv9zjar51::%%@",
"@%%:>17uknnmmmmmmmBv9cxhi751>:%@",
"@%;><57axmmmmmmmmmVmdmmxgu751:%@",
"@%:<46ygxmmmmmmmmmVmdmmcjay74>%@",
"@%:<57ygxmmmmmmmmmmmdmmckgit5<;@",
"@%>16rihxmmmmmmmmmmmdmmvxjgu61:#",
"#-<47ysjcmmmmmmmmmmlldmvxxjg71:#",
".o+&=2379dddddddddlllld09887<%+.",
"O@%:157yglllllllllllllljgfi84:%O",
"@%:<477ygmmmmmmmmmmmmmmvxzjs71:#",
"-><4q6r7xmmVmmVmVVVVVVVNMnbkp61;",
"@%-:4e73xmmmmmmmmmmmmmmvxjgu71:#",
"@#%;:662jvvnnmmmmmmmmmmxjsy74<-#",
"@#%%-44<gxxvvnmmmmmmmnnxgy74<:%@",
"@@#%%11=akxxvnmmmmmmnnvki74>:-%@",
"@@@@#<<*ygkxcnmmmmmnnvvht5>-%%#@",
"@@@@@>>%7isgkxxxxxxxxxza71:##@@@",
"@@@@@::+477ryuiiiaaiuyy74>-#@@@@",
"@@@@@:%O>114456667766541>:%@@@@@",
"@@@@@-#.-::::><<<<<<>>::-%#@@@@@",
"@@@@@@@ @@##%%%%%--%%%#@@@@@@@@@",
"@@@@@@@ @@@@@##%%%%%#@@@@@@@@@@@",
"@@@@@@XX @@@@@####%##@@@@@@@@@@@",
"     XXXX      .....            "
};
